www/assets/icons/auto_graph.svg

<svg xmlns="http://www.w3.org/2000/svg" width="24" height="24" viewBox="0 0 24 24" fill='currentColor'><path d="M14.06 10.69 12 9.75l2.06-.94.94-2.06.94 2.06 2.06.94-2.06.94-.94 2.06zM4 14.75l.94-2.06L7 11.75l-2.06-.94L4 8.75l-.94 2.06-2.06.94 2.06.94zm4.5-5 1.09-2.41L12 6.25 9.59 5.16 8.5 2.75 7.41 5.16 5 6.25l2.41 1.09zm-4 11.5 6-6.01 4 4L23 9.68l-1.41-1.41-7.09 7.97-4-4L3 19.75z"/></svg>

<svg width="24" height="24" viewBox="0 0 24 24" xmlns="http://www.w3.org/2000/svg" fill='currentColor'><path d="M14.06 10.69L12 9.75L14.06 8.81L15 6.75L15.94 8.81L18 9.75L15.94 10.69L15 12.75L14.06 10.69ZM4 14.75L4.94 12.69L7 11.75L4.94 10.81L4 8.75L3.06 10.81L1 11.75L3.06 12.69L4 14.75ZM8.5 9.75L9.59 7.34L12 6.25L9.59 5.16L8.5 2.75L7.41 5.16L5 6.25L7.41 7.34L8.5 9.75ZM4.5 21.25L10.5 15.24L14.5 19.24L23 9.68L21.59 8.27L14.5 16.24L10.5 12.24L3 19.75L4.5 21.25Z"/></svg>
